public/assets/images/symbol-rd-station-default.svg

<svg width="150" height="128" viewBox="0 0 150 128" fill="none" xmlns="http://www.w3.org/2000/svg">
<g clip-path="url(#clip0_5_19033)">
<path d="M111.571 48.0261L76.9111 103.961L88.6912 128L123.351 72.0654L111.571 48.0261Z" fill="#806EFF"/>
<path d="M34.6597 0L0 55.9345L11.7801 79.9738L46.4398 24.0393L34.6597 0Z" fill="#806EFF"/>
<path d="M84.9213 48.0262L99.7904 24.0393L90.2616 4.66121L88.0103 0L58.2197 48.0262L23.5601 103.961L35.3402 128L69.9999 72.0655L66.1255 64.1047L58.2197 48.0262H84.9213Z" fill="#806EFF"/>
<path d="M150 72.0654L138.22 48.0261H111.571L123.351 72.0654L88.6909 128H115.34L150 72.0654Z" fill="black"/>
<path d="M73.0892 24.0393L61.3091 0H34.6598L46.4399 24.0393L11.7803 79.9738H38.4295L73.0892 24.0393Z" fill="black"/>
<path d="M96.7016 72.0655L126.44 24.0393L114.66 0H88.0105L99.7906 24.0393L84.9215 48.0262H58.2199L70 72.0655L35.3403 128H62.0419L91.7801 79.9738L96.7016 72.0655Z" fill="black"/>
</g>
<defs>
<clipPath id="clip0_5_19033">
<rect width="150" height="128" fill="white"/>
</clipPath>
</defs>
</svg>

<svg xmlns="http://www.w3.org/2000/svg" fill="none" viewBox="0 0 150 128"><g clip-path="url(#a)"><path fill="#806EFF" d="m111.571 48.026-34.66 55.935L88.691 128l34.66-55.935-11.78-24.039ZM34.66 0 0 55.934l11.78 24.04 34.66-55.935L34.66 0ZM84.921 48.026l14.87-23.987-9.53-19.378L88.012 0 58.22 48.026l-34.66 55.935L35.34 128 70 72.066l-3.874-7.961-7.906-16.079H84.92Z"/><path fill="#000" d="m150 72.065-11.78-24.039h-26.649l11.78 24.04L88.691 128h26.649L150 72.065ZM73.09 24.04 61.31 0H34.66l11.78 24.04-34.66 55.934h26.65l34.66-55.935Z"/><path fill="#000" d="m96.702 72.066 29.738-48.027L114.66 0H88.01l11.78 24.04-14.869 23.986H58.22L70 72.066 35.34 128h26.702L91.78 79.974l4.922-7.909Z"/></g><defs><clipPath id="a"><path fill="#fff" d="M0 0h150v128H0z"/></clipPath></defs></svg>
